src/images/building.svg

<svg xmlns="http://www.w3.org/2000/svg" width="28" height="30" fill="none" viewBox="0 0 28 30"><path fill="#2542b9" d="M27.0689 28.125H25.8272V1.40625C25.8272 0.62959 25.1601 0 24.3372 0H3.47674C2.65381 0 1.98671 0.62959 1.98671 1.40625V28.125H0.745016C0.333581 28.125 0 28.4398 0 28.8281V30H27.8139V28.8281C27.8139 28.4398 27.4804 28.125 27.0689 28.125ZM7.94684 4.45312C7.94684 4.06482 8.28042 3.75 8.69186 3.75H11.1752C11.5867 3.75 11.9203 4.06482 11.9203 4.45312V6.79688C11.9203 7.18518 11.5867 7.5 11.1752 7.5H8.69186C8.28042 7.5 7.94684 7.18518 7.94684 6.79688V4.45312ZM7.94684 10.0781C7.94684 9.68982 8.28042 9.375 8.69186 9.375H11.1752C11.5867 9.375 11.9203 9.68982 11.9203 10.0781V12.4219C11.9203 12.8102 11.5867 13.125 11.1752 13.125H8.69186C8.28042 13.125 7.94684 12.8102 7.94684 12.4219V10.0781ZM11.1752 18.75H8.69186C8.28042 18.75 7.94684 18.4352 7.94684 18.0469V15.7031C7.94684 15.3148 8.28042 15 8.69186 15H11.1752C11.5867 15 11.9203 15.3148 11.9203 15.7031V18.0469C11.9203 18.4352 11.5867 18.75 11.1752 18.75ZM15.8937 28.125H11.9203V23.2031C11.9203 22.8148 12.2538 22.5 12.6653 22.5H15.1487C15.5601 22.5 15.8937 22.8148 15.8937 23.2031V28.125ZM19.8671 18.0469C19.8671 18.4352 19.5335 18.75 19.1221 18.75H16.6387C16.2273 18.75 15.8937 18.4352 15.8937 18.0469V15.7031C15.8937 15.3148 16.2273 15 16.6387 15H19.1221C19.5335 15 19.8671 15.3148 19.8671 15.7031V18.0469ZM19.8671 12.4219C19.8671 12.8102 19.5335 13.125 19.1221 13.125H16.6387C16.2273 13.125 15.8937 12.8102 15.8937 12.4219V10.0781C15.8937 9.68982 16.2273 9.375 16.6387 9.375H19.1221C19.5335 9.375 19.8671 9.68982 19.8671 10.0781V12.4219ZM19.8671 6.79688C19.8671 7.18518 19.5335 7.5 19.1221 7.5H16.6387C16.2273 7.5 15.8937 7.18518 15.8937 6.79688V4.45312C15.8937 4.06482 16.2273 3.75 16.6387 3.75H19.1221C19.5335 3.75 19.8671 4.06482 19.8671 4.45312V6.79688Z"/></svg>

<svg fill="none" viewBox="0 0 28 30"><path fill="#2542b9" d="M27.069 28.125h-1.242V1.406C25.827.63 25.16 0 24.337 0H3.477c-.823 0-1.49.63-1.49 1.406v26.719H.745c-.411 0-.745.315-.745.703V30h27.814v-1.172c0-.388-.334-.703-.745-.703zM7.947 4.453c0-.388.333-.703.745-.703h2.483c.412 0 .745.315.745.703v2.344c0 .388-.333.703-.745.703H8.692c-.412 0-.745-.315-.745-.703V4.453zm0 5.625c0-.388.333-.703.745-.703h2.483c.412 0 .745.315.745.703v2.344c0 .388-.333.703-.745.703H8.692c-.412 0-.745-.315-.745-.703v-2.344zm3.228 8.672H8.692c-.412 0-.745-.315-.745-.703v-2.344c0-.388.333-.703.745-.703h2.483c.412 0 .745.315.745.703v2.344c0 .388-.333.703-.745.703zm4.719 9.375H11.92v-4.922c0-.388.334-.703.745-.703h2.484c.411 0 .745.315.745.703v4.922zm3.973-10.078c0 .388-.334.703-.745.703H16.64c-.412 0-.745-.315-.745-.703v-2.344c0-.388.333-.703.745-.703h2.483c.412 0 .745.315.745.703v2.344zm0-5.625c0 .388-.334.703-.745.703H16.64c-.412 0-.745-.315-.745-.703v-2.344c0-.388.333-.703.745-.703h2.483c.412 0 .745.315.745.703v2.344zm0-5.625c0 .388-.334.703-.745.703H16.64c-.412 0-.745-.315-.745-.703V4.453c0-.388.333-.703.745-.703h2.483c.412 0 .745.315.745.703v2.344z"/></svg>
